svgs/sharp-solid/chair.svg

<svg xmlns="http://www.w3.org/2000/svg" viewBox="0 0 448 512"><!--! Font Awesome Pro 6.6.0 by @fontawesome - https://fontawesome.com License - https://fontawesome.com/license (Commercial License) Copyright 2024 Fonticons, Inc. --><path d="M296 48l0 208-48 0 0-208-48 0 0 208-48 0 0-208-40 0 0 208-48 0L64 48 64 0l48 0L336 0l48 0 0 48 0 208-48 0 0-208-40 0zM0 384l0-32 32-64 384 0 32 64 0 32-32 0 0 96 0 32-64 0 0-32 0-96L96 384l0 96 0 32-64 0 0-32 0-96L0 384z"/></svg>

<svg xmlns="http://www.w3.org/2000/svg" viewBox="0 0 448 512"><!--! Font Awesome Pro 6.4.2 by @fontawesome - https://fontawesome.com License - https://fontawesome.com/license (Commercial License) Copyright 2023 Fonticons, Inc. --><path d="M296 48V256H248V48H200V256H152V48H112V256H64V48 0h48H336h48V48 256H336V48H296zM0 384V352l32-64H416l32 64v32H416v96 32H352V480 384H96v96 32H32V480 384H0z"/></svg>
